icons-rebrand/svg/video-plus-bold.svg

<svg xmlns="http://www.w3.org/2000/svg" width="32" height="32" viewBox="0 0 32 32" fill="none"><path d="M13.0001 22C12.4479 22 12.0001 21.5523 12.0001 21V17H8C7.44771 17 7 16.5523 7 16C7 15.4477 7.44772 15 8 15H12.0001V11C12.0001 10.4477 12.4479 10 13.0001 10C13.5524 10 14.0001 10.4477 14.0001 11V15H18C18.5523 15 19 15.4477 19 16C19 16.5523 18.5523 17 18 17H14.0001V21C14.0001 21.5523 13.5524 22 13.0001 22Z M28.0909 8.99481C28.432 9.00986 28.7633 9.11282 29.0528 9.2937C29.3438 9.47191 29.584 9.72203 29.7502 10.02C29.9165 10.3179 30.0033 10.6537 30.0022 10.9949V20.9959C30.0022 21.3368 29.9151 21.672 29.7491 21.9697C29.5831 22.2675 29.3438 22.5179 29.0538 22.6971C28.7639 22.8763 28.4329 22.9785 28.0924 22.9938C27.7518 23.0092 27.413 22.9373 27.1081 22.7849C27.0772 22.7693 27.0474 22.7527 27.0181 22.7342L24 20.8153V22C23.9984 23.3256 23.4712 24.5965 22.5338 25.5338C21.5965 26.4712 20.3256 26.9984 19 27H7C5.6744 26.9984 4.40353 26.4712 3.46619 25.5338C2.52885 24.5965 2.00156 23.3256 2 22V10C2.00156 8.6744 2.52885 7.40353 3.46619 6.46619C4.40353 5.52885 5.6744 5.00156 7 5H19C20.3256 5.00154 21.5965 5.52881 22.5338 6.46616C23.4712 7.40351 23.9985 8.67439 24 10V11.1764L27.0181 9.2578C27.0465 9.23931 27.076 9.22261 27.1065 9.2078C27.4108 9.05313 27.7499 8.97976 28.0909 8.99481ZM21.1204 24.1204C21.6828 23.5579 21.9991 22.7954 22 22V10C21.9991 9.20462 21.6828 8.44206 21.1204 7.87964C20.5579 7.31722 19.7954 7.00087 19 7H7C6.20462 7.00087 5.44206 7.31722 4.87964 7.87964C4.31722 8.44206 4.00087 9.20462 4 10V22C4.00087 22.7954 4.31722 23.5579 4.87964 24.1204C5.44206 24.6828 6.20462 24.9991 7 25H19C19.7954 24.9991 20.5579 24.6828 21.1204 24.1204ZM24 18.4455L28.0015 20.99L28.002 11.0017L24 13.5462V18.4455Z"/></svg>

<svg width="32" height="32" fill="none" xmlns="http://www.w3.org/2000/svg"><path d="M13 22a1 1 0 0 1-1-1v-4H8a1 1 0 1 1 0-2h4v-4a1 1 0 0 1 2 0v4h4a1 1 0 1 1 0 2h-4v4a1 1 0 0 1-1 1Z" fill="#0F0F0F"/><path d="M28.09 8.995c.342.015.673.118.963.299a1.986 1.986 0 0 1 .95 1.7v10.002a2 2 0 0 1-2.985 1.738L24 20.815V22a5.006 5.006 0 0 1-5 5H7a5.006 5.006 0 0 1-5-5V10a5.006 5.006 0 0 1 5-5h12a5.006 5.006 0 0 1 5 5v1.176l3.018-1.918a1.98 1.98 0 0 1 1.073-.263ZM21.12 24.12A3.004 3.004 0 0 0 22 22V10a3.003 3.003 0 0 0-3-3H7a3.003 3.003 0 0 0-3 3v12a3.003 3.003 0 0 0 3 3h12c.795 0 1.558-.317 2.12-.88ZM24 18.445l4.002 2.545v-9.988L24 13.546v4.9Z" fill="#0F0F0F"/></svg>
